X:195
T:Trip to Quebec, A
M:6/8
L:1/8
B:Thompson's Compleat Collection of 200 Favourite Country Dances, vol. 2 (London, 1765)
Z:Transcribed and edited by Flynn Titford-Mock, 2007
Z:abc's:AK/Fiddler's Companion
K:D
dAG FED | B2B "tr"B3 | ABc def | ged cBA | dAG FED | B2B B2g | fed ABc | d3 D3 :|
|: f2f fed | ce^g aec | dcB fed | cBA ^GFE | A2E cBA | B2f e2d | cBA B3 | A3 A2A |
dAF DFA | =cBA B2B | eB^G E^GB | dcB c2d | aec Ace | gfe "tr"f2 {ga}b | agf edc | d3 d3 :|

